dist/res/image/work_title.svg

<svg width="137" height="65" viewBox="0 0 137 65" fill="none" xmlns="http://www.w3.org/2000/svg">
<path d="M1.17188 11.7578V1.15234H2.49023V5.86914H8.10059V1.15234H9.43359V11.7578H8.10059V7.02637H2.49023V11.7578H1.17188ZM20.5625 6.45508C20.5625 9.80957 18.585 11.9043 15.875 11.9043C13.1504 11.9043 11.1875 9.80957 11.1875 6.45508C11.1875 3.10059 13.1504 1.00586 15.875 1.00586C18.585 1.00586 20.5625 3.10059 20.5625 6.45508ZM19.2881 6.45508C19.2881 3.71582 17.794 2.23633 15.875 2.23633C13.9561 2.23633 12.462 3.71582 12.462 6.45508C12.462 9.19434 13.9561 10.6738 15.875 10.6738C17.794 10.6738 19.2881 9.19434 19.2881 6.45508ZM22.3311 1.15234H23.9132L27.4874 9.88281H27.6192L31.1934 1.15234H32.7755V11.7578H31.5304V3.74512H31.4278L28.1319 11.7578H26.96L23.6641 3.74512H23.5763V11.7578H22.3311V1.15234ZM34.9542 11.7578V1.15234H41.3849V2.32422H36.2726V5.86914H41.048V7.02637H36.2726V10.5859H41.4581V11.7578H34.9542ZM53.7844 7.05566L47.09 10.4395V9.07715L52.1584 6.66016V6.57227L47.09 4.14062V2.77832L53.7844 6.17676V7.05566ZM61.7014 11.7578L58.8011 1.15234H60.1341L62.346 9.73633H62.4485L64.6897 1.15234H66.1692L68.4251 9.73633H68.513L70.7249 1.15234H72.0579L69.1575 11.7578H67.7952L65.4807 3.36426H65.3929L63.0638 11.7578H61.7014ZM81.7513 6.45508C81.7513 9.80957 79.7738 11.9043 77.0638 11.9043C74.3392 11.9043 72.3763 9.80957 72.3763 6.45508C72.3763 3.10059 74.3392 1.00586 77.0638 1.00586C79.7738 1.00586 81.7513 3.10059 81.7513 6.45508ZM80.4769 6.45508C80.4769 3.71582 78.9827 2.23633 77.0638 2.23633C75.1448 2.23633 73.6507 3.71582 73.6507 6.45508C73.6507 9.19434 75.1448 10.6738 77.0638 10.6738C78.9827 10.6738 80.4769 9.19434 80.4769 6.45508ZM83.5199 11.7578V1.15234H87.1234C89.6136 1.15234 90.7416 2.5293 90.7416 4.41895C90.7416 5.81787 90.1117 6.92383 88.764 7.39258L91.1517 11.7578H89.6136L87.4017 7.62695L87.138 7.6416H84.8382V11.7578H83.5199ZM84.8382 6.44043H87.0795C88.764 6.44043 89.4379 5.67871 89.4379 4.41895C89.4379 3.14453 88.764 2.32422 87.0648 2.32422H84.8382V6.44043ZM92.4809 11.7578V1.15234H93.7992V6.39648H93.9311L98.6479 1.15234H100.376L95.9379 5.94238L100.376 11.7578H98.765L95.1176 6.85059L93.7992 8.34473V11.7578H92.4809Z" fill="#FB9EBC"/>
<path d="M9.7998 63.7578L0.703125 31.9414H7.91016L13.2715 54.1777H13.5352L19.3799 31.9414H25.5762L31.4209 54.2217H31.6846L37.0459 31.9414H44.2529L35.1562 63.7578H28.6963L22.6318 42.752H22.3682L16.2598 63.7578H9.7998ZM55.1398 64.2412C47.9327 64.2412 43.4503 59.2754 43.4503 51.8926C43.4503 44.5098 47.9327 39.5879 55.1398 39.5879C62.3468 39.5879 66.8732 44.5098 66.8732 51.8926C66.8732 59.2754 62.3468 64.2412 55.1398 64.2412ZM55.1837 59.1875C58.5236 59.1875 60.2374 56.0674 60.2374 51.8926C60.2374 47.6738 58.5236 44.5537 55.1837 44.5537C51.7999 44.5537 50.0421 47.6738 50.0421 51.8926C50.0421 56.0674 51.7999 59.1875 55.1837 59.1875ZM70.4651 63.7578V39.8955H76.7493V44.0264H77.0129C77.8918 41.082 80.0891 39.5439 82.7698 39.5439C83.4289 39.5439 84.2639 39.6318 84.8352 39.7637V45.5645C84.22 45.3887 82.9895 45.2129 82.0666 45.2129C79.1223 45.2129 76.969 47.2783 76.969 50.1787V63.7578H70.4651ZM87.5043 63.7578V31.9414H94.0082V49.0361H94.3597L102.094 39.8955H109.565L100.688 50.2227L110.048 63.7578H102.402L95.8539 54.0459L94.0082 56.1113V63.7578H87.5043Z" fill="#FFDCE6"/>
</svg>

<svg xmlns="http://www.w3.org/2000/svg" width="137" height="65" fill="none"><path fill="#FB9EBC" d="M1.172 11.758V1.152H2.49V5.87H8.1V1.152h1.334v10.606H8.1V7.026H2.49v4.732zm19.39-5.303c0 3.355-1.977 5.45-4.687 5.45-2.725 0-4.687-2.095-4.687-5.45s1.962-5.45 4.687-5.45c2.71 0 4.688 2.096 4.688 5.45m-1.274 0c0-2.74-1.494-4.219-3.413-4.219s-3.413 1.48-3.413 4.22c0 2.738 1.494 4.218 3.413 4.218s3.413-1.48 3.413-4.219m3.043-5.303h1.582l3.574 8.73h.132l3.574-8.73h1.582v10.606H31.53V3.745h-.102l-3.296 8.013H26.96l-3.296-8.013h-.088v8.013h-1.245zm12.623 10.606V1.152h6.43v1.172h-5.111V5.87h4.775v1.157h-4.775v3.56h5.185v1.172zm18.83-4.702L47.09 10.44V9.077l5.068-2.417v-.088L47.09 4.141V2.778l6.694 3.399zm7.917 4.702-2.9-10.606h1.333l2.212 8.584h.103l2.24-8.584h1.48l2.256 8.584h.088l2.212-8.584h1.333l-2.9 10.606h-1.363l-2.314-8.394h-.088l-2.33 8.394zm20.05-5.303c0 3.355-1.977 5.45-4.687 5.45-2.725 0-4.688-2.095-4.688-5.45s1.963-5.45 4.688-5.45c2.71 0 4.687 2.096 4.687 5.45m-1.274 0c0-2.74-1.494-4.219-3.413-4.219-1.92 0-3.413 1.48-3.413 4.22 0 2.738 1.494 4.218 3.413 4.218s3.413-1.48 3.413-4.219m3.043 5.303V1.152h3.603c2.49 0 3.619 1.377 3.619 3.267 0 1.399-.63 2.505-1.978 2.974l2.388 4.365h-1.538l-2.212-4.131-.264.015h-2.3v4.116zm1.318-5.318h2.242c1.684 0 2.358-.761 2.358-2.021 0-1.274-.674-2.095-2.373-2.095h-2.227zm7.643 5.318V1.152h1.318v5.244h.132l4.717-5.244h1.728l-4.438 4.79 4.438 5.816h-1.611L95.118 6.85l-1.319 1.494v3.413z"/><path fill="#FFDCE6" d="M9.8 63.758.703 31.94H7.91l5.361 22.237h.264L19.38 31.94h6.196l5.845 22.28h.264l5.36-22.28h7.208l-9.097 31.817h-6.46l-6.064-21.006h-.264L16.26 63.758zm45.34.483c-7.207 0-11.69-4.966-11.69-12.348s4.483-12.305 11.69-12.305 11.733 4.922 11.733 12.305c0 7.382-4.526 12.348-11.733 12.348m.044-5.053c3.34 0 5.053-3.12 5.053-7.295 0-4.22-1.713-7.34-5.053-7.34-3.384 0-5.142 3.12-5.142 7.34 0 4.174 1.758 7.294 5.142 7.294m15.281 4.57V39.895h6.284v4.131h.264c.879-2.944 3.076-4.482 5.757-4.482.659 0 1.494.088 2.065.22v5.8c-.615-.175-1.845-.351-2.768-.351-2.945 0-5.098 2.065-5.098 4.966v13.579zm17.04 0V31.94h6.503v17.095h.352l7.734-9.14h7.471l-8.877 10.327 9.36 13.535h-7.646l-6.548-9.712-1.846 2.065v7.647z"/></svg>
